Origami/48x48/apps/soundwire.svg

<svg width="48" height="48" version="1" xmlns="http://www.w3.org/2000/svg">
 <rect transform="matrix(0,-1,-1,0,0,0)" x="-44" y="-44" width="40" height="40" rx="2" ry="2" style="fill:#5b3a2b"/>
 <path d="m4 7v-1c0-1.108 0.892-2 2-2h36c1.108 0 2 0.892 2 2v1c0-1.108-0.892-2-2-2h-36c-1.108 0-2 0.892-2 2z" fill="#fff" style="opacity:.1"/>
 <path d="m4 42v1c0 1.108 0.892 2 2 2h36c1.108 0 2-0.892 2-2v-1c0 1.108-0.892 2-2 2h-36c-1.108 0-2-0.892-2-2z" opacity=".2"/>
 <path d="m25.742188 5c0.286771 0.067712 3.345852 0.7962561 6.513671 2.0664062 1.659248 0.6652824 3.288343 1.47837 4.365235 2.2773438 0.892578 0.662227 1.04556 1.080118 1.142578 1.373047-0.0067 0.0033-0.002966 0.002559-0.009766 0.005859-0.585229 0.283323-1.715527 1.019946-3.121094 1.28125-2.811132 0.522607-6.756763 0.823493-10.707031 0.96875-7.900535 0.290513-15.849609-0.007812-15.849609-0.007812-1.1151664-0.042758-2.0496339 0.435079-2.0761719 1.550781-0.025912 1.084118 0.6617996 1.821186 1.15625 2.1875s0.9738721 0.5688 1.5097656 0.763672c1.071787 0.389743 2.3769034 0.684916 3.9238284 0.96875 3.093849 0.567668 7.10229 1.044944 11.103515 1.509765 3.050847 0.354418 5.753997 0.705663 8.326172 1.060547-2.622037 0.366979-5.386805 0.727805-8.501953 1.13086-4.072667 0.526944-8.139361 1.104843-11.27539 1.857422-1.568017 0.376289-2.8935114 0.774233-4.0019536 1.355468-0.5542212 0.290618-1.0743856 0.621095-1.5371094 1.175782-0.4293715 0.514705-0.7329398 1.364989-0.6582031 2.191406 0.058963 0.963403 0.5490633 1.538828 0.9472656 1.908203 0.4269404 0.396033 0.8766863 0.681915 1.3945313 0.96875 1.0356897 0.573671 2.3430112 1.115118 3.8925782 1.669922 1.106728 0.396251 2.692669 0.728679 3.996094 1.117187-1.314838 0.472103-2.911647 0.853923-4.03125 1.341797-1.569788 0.684046-2.8997683 1.359117-3.9492191 2.060547-0.5247254 0.350715-0.9818022 0.701116-1.390625 1.146485-0.4088228 0.445365-0.8713773 1.029881-0.9023438 2.007812-0.0373046 1.178095 0.2787537 2.195784 0.7460938 3.0625h5.6894531c-0.263785-0.121507-0.6945-0.338162-1.220703-0.763672-0.625052-0.505443-1.008846-1.087338-1.119141-1.796875 0.118567-0.101575 0.195311-0.179953 0.419922-0.330078 0.71475-0.477724 1.891932-1.09377 3.326172-1.71875 2.495556-1.087455 5.916279-2.167748 9.291016-3.089844 0.121072 0.02732 0.212843 0.06682 0.333984 0.09375 4.057634 0.902139 8.112039 1.585676 11.3125 1.777344 1.60023 0.09583 2.968455 0.088051 4.183594-0.164063 0.607569-0.126055 1.195951-0.30021 1.792968-0.722656 0.597018-0.422446 1.192456-1.281064 1.240235-2.179687 0.0016-0.03643 0.002253-0.07291 0.001953-0.109375-3e-3 -1.645983-1.157083-3.159517-2.482422-3.820313-1.325339-0.660795-2.808336-0.850876-4.46875-0.882812-3.320828-0.06387-7.403814 0.638926-11.5 1.667969-0.182619 0.045879-0.321481 0.120782-0.503906 0.167968-3.433652-0.81012-6.898894-1.729633-9.416016-2.630859-1.014262-0.363145-1.661833-0.679986-2.339844-0.996094 0.581543-0.208656 1.023846-0.410117 1.886719-0.617187 2.815743-0.675717 6.819719-1.257129 10.855469-1.779297s8.109304-0.991417 11.240234-1.498047c1.565465-0.253315 2.882912-0.507696 3.94336-0.830078 0.530224-0.161191 0.991732-0.321076 1.488281-0.626953 0.248275-0.152939 0.518665-0.342701 0.791016-0.691407 0.27235-0.348705 0.537265-0.937619 0.503906-1.564453-0.0649-1.219439-0.865732-1.767357-1.351563-2.058593-0.48583-0.291238-0.949736-0.45551-1.478515-0.617188-1.057558-0.323355-2.365585-0.580711-3.914063-0.832031-2.34491-0.380583-5.416493-0.721684-8.404297-1.070313 3.015443-0.172445 6.110876-0.332239 8.515625-0.779297 1.594522-0.296431 2.96583-0.648872 4.13086-1.21289 0.582515-0.282009 1.127741-0.616231 1.611328-1.138672 0.48354-0.522441 0.892238-1.328535 0.892578-2.185547 8.61e-4 -2.1711719-1.446209-3.7206899-2.994141-4.8691406-0.555001-0.41177-1.161116-0.7805032-1.783203-1.1308594h-11.480468z" style="opacity:.2"/>
 <path d="m25.742188 4c0.286771 0.067712 3.345852 0.796256 6.513671 2.0664062 1.659248 0.6652823 3.288343 1.47837 4.365235 2.2773438 0.892578 0.6622268 1.04556 1.0801184 1.142578 1.3730469-0.0067 0.00328-3e-3 0.00256-0.0098 0.00586-0.585229 0.2833228-1.715527 1.0196648-3.121094 1.2809688-2.811132 0.522607-6.756763 0.823493-10.707031 0.96875-7.900535 0.290513-15.849609-0.0078-15.849609-0.0078-1.1151664-0.0427177-2.0495999 0.4353473-2.0761379 1.5510493-0.025912 1.084118 0.6617996 1.821186 1.15625 2.1875s0.9738721 0.5688 1.5097656 0.763672c1.071787 0.389743 2.3769034 0.684916 3.9238284 0.96875 3.093849 0.567668 7.10229 1.044944 11.103515 1.509765 3.050847 0.354418 5.753997 0.705663 8.326172 1.060547-2.622037 0.366979-5.386805 0.727805-8.501953 1.13086-4.072667 0.526944-8.139361 1.104843-11.27539 1.857422-1.568016 0.376289-2.8935114 0.774233-4.0019536 1.355468-0.5542212 0.290618-1.0743856 0.621095-1.5371094 1.175782-0.4293715 0.514705-0.7329398 1.364989-0.6582031 2.191406 0.058963 0.963403 0.5490633 1.538828 0.9472656 1.908203 0.4269404 0.396033 0.8766863 0.681915 1.3945313 0.96875 1.0356897 0.573671 2.3430112 1.115118 3.8925782 1.669922 1.106728 0.396251 2.692669 0.728679 3.996094 1.117187-1.314838 0.472103-2.911647 0.853923-4.03125 1.341797-1.569788 0.684046-2.8997683 1.359117-3.9492191 2.060547-0.5247254 0.350715-0.9818022 0.701116-1.390625 1.146485-0.4088228 0.445366-0.8713773 1.029881-0.9023438 2.007812-0.0527089 1.664567 0.5803732 3.025466 1.3847657 4.0625h6.3437502c-0.230021-0.399333-0.590836-0.707026-1.021485-0.871094 0 0-0.751512-0.293637-1.492187-0.892578-0.625052-0.505443-1.008846-1.087338-1.119141-1.796875 0.118567-0.101575 0.195311-0.179953 0.419922-0.330078 0.71475-0.477724 1.891932-1.09377 3.326172-1.71875 2.495556-1.087455 5.916279-2.167748 9.291016-3.089844 0.121072 0.02732 0.212843 0.06682 0.333984 0.09375 4.057634 0.902139 8.112039 1.585676 11.3125 1.777344 1.60023 0.09583 2.968455 0.08805 4.183594-0.164063 0.607569-0.126055 1.195951-0.30021 1.792968-0.722656 0.597018-0.422446 1.192456-1.281064 1.240235-2.179687 0.0016-0.03643 0.0023-0.07291 2e-3 -0.109375-3e-3 -1.645983-1.157083-3.159517-2.482422-3.820313-1.325339-0.660795-2.808336-0.850876-4.46875-0.882812-3.320828-0.06387-7.403814 0.638926-11.5 1.667969-0.182619 0.04588-0.321481 0.120782-0.503906 0.167968-3.433652-0.81012-6.898894-1.729633-9.416016-2.630859-1.014262-0.363145-1.661833-0.679986-2.339844-0.996094 0.581543-0.208656 1.023846-0.410117 1.886719-0.617187 2.815743-0.675717 6.819719-1.257129 10.855469-1.779297s8.109304-0.991417 11.240234-1.498047c1.565465-0.253315 2.882912-0.507696 3.94336-0.830078 0.530224-0.161191 0.991732-0.321076 1.488281-0.626953 0.248275-0.152939 0.518665-0.342701 0.791016-0.691407 0.27235-0.348705 0.537265-0.937619 0.503906-1.564453-0.0649-1.219439-0.865732-1.767356-1.351563-2.058593-0.48583-0.291238-0.949736-0.45551-1.478515-0.617188-1.057558-0.323355-2.365585-0.580711-3.914063-0.832031-2.34491-0.380583-5.416493-0.721684-8.404297-1.070313 3.015443-0.172445 6.110876-0.332239 8.515625-0.779297 1.594522-0.296431 2.96583-0.648872 4.13086-1.21289 0.582515-0.282009 1.127741-0.616231 1.611328-1.138672 0.48354-0.522441 0.892191-1.328535 0.892531-2.185547 8.61e-4 -2.1711719-1.446209-3.7206899-2.994141-4.8691406-0.555001-0.41177-1.161116-0.7805032-1.783203-1.1308594z" style="fill:#f19037"/>
</svg>

<svg xmlns="http://www.w3.org/2000/svg" width="48" height="48" version="1">
 <rect style="fill:#5b3a2b" width="40" height="40" x="-44" y="-44" rx="2" ry="2" transform="matrix(0,-1,-1,0,0,0)"/>
 <path fill="#fff" style="opacity:0.1" d="m4 7v-1c0-1.108 0.892-2 2-2h36c1.108 0 2 0.892 2 2v1c0-1.108-0.892-2-2-2h-36c-1.108 0-2 0.892-2 2z"/>
 <path opacity=".2" d="m4 42v1c0 1.108 0.892 2 2 2h36c1.108 0 2-0.892 2-2v-1c0 1.108-0.892 2-2 2h-36c-1.108 0-2-0.892-2-2z"/>
 <path style="opacity:0.2" d="M 25.742188 5 C 26.028959 5.067712 29.08804 5.7962561 32.255859 7.0664062 C 33.915107 7.7316886 35.544202 8.5447762 36.621094 9.34375 C 37.513672 10.005977 37.666654 10.423868 37.763672 10.716797 C 37.756972 10.720097 37.760706 10.719356 37.753906 10.722656 C 37.168677 11.005979 36.038379 11.742602 34.632812 12.003906 C 31.82168 12.526513 27.876049 12.827399 23.925781 12.972656 C 16.025246 13.263169 8.0761719 12.964844 8.0761719 12.964844 C 6.9610055 12.922086 6.026538 13.399923 6 14.515625 C 5.974088 15.599743 6.6617996 16.336811 7.15625 16.703125 C 7.6507004 17.069439 8.1301221 17.271925 8.6660156 17.466797 C 9.7378026 17.85654 11.042919 18.151713 12.589844 18.435547 C 15.683693 19.003215 19.692134 19.480491 23.693359 19.945312 C 26.744206 20.29973 29.447356 20.650975 32.019531 21.005859 C 29.397494 21.372838 26.632726 21.733664 23.517578 22.136719 C 19.444911 22.663663 15.378217 23.241562 12.242188 23.994141 C 10.674171 24.37043 9.3486766 24.768374 8.2402344 25.349609 C 7.6860132 25.640227 7.1658488 25.970704 6.703125 26.525391 C 6.2737535 27.040096 5.9701852 27.89038 6.0449219 28.716797 C 6.1038849 29.6802 6.5939852 30.255625 6.9921875 30.625 C 7.4191279 31.021033 7.8688738 31.306915 8.3867188 31.59375 C 9.4224085 32.167421 10.72973 32.708868 12.279297 33.263672 C 13.386025 33.659923 14.971966 33.992351 16.275391 34.380859 C 14.960553 34.852962 13.363744 35.234782 12.244141 35.722656 C 10.674353 36.406702 9.3443727 37.081773 8.2949219 37.783203 C 7.7701965 38.133918 7.3131197 38.484319 6.9042969 38.929688 C 6.4954741 39.375053 6.0329196 39.959569 6.0019531 40.9375 C 5.9646485 42.115595 6.2807068 43.133284 6.7480469 44 L 12.4375 44 C 12.173715 43.878493 11.743 43.661838 11.216797 43.236328 C 10.591745 42.730885 10.207951 42.14899 10.097656 41.439453 C 10.216223 41.337878 10.292967 41.2595 10.517578 41.109375 C 11.232328 40.631651 12.40951 40.015605 13.84375 39.390625 C 16.339306 38.30317 19.760029 37.222877 23.134766 36.300781 C 23.255838 36.328101 23.347609 36.367601 23.46875 36.394531 C 27.526384 37.29667 31.580789 37.980207 34.78125 38.171875 C 36.38148 38.267705 37.749705 38.259926 38.964844 38.007812 C 39.572413 37.881757 40.160795 37.707602 40.757812 37.285156 C 41.35483 36.86271 41.950268 36.004092 41.998047 35.105469 C 41.999647 35.069039 42.0003 35.032559 42 34.996094 C 41.997 33.350111 40.842917 31.836577 39.517578 31.175781 C 38.192239 30.514986 36.709242 30.324905 35.048828 30.292969 C 31.728 30.229099 27.645014 30.931895 23.548828 31.960938 C 23.366209 32.006817 23.227347 32.08172 23.044922 32.128906 C 19.61127 31.318786 16.146028 30.399273 13.628906 29.498047 C 12.614644 29.134902 11.967073 28.818061 11.289062 28.501953 C 11.870605 28.293297 12.312908 28.091836 13.175781 27.884766 C 15.991524 27.209049 19.9955 26.627637 24.03125 26.105469 C 28.067 25.583301 32.140554 25.114052 35.271484 24.607422 C 36.836949 24.354107 38.154396 24.099726 39.214844 23.777344 C 39.745068 23.616153 40.206576 23.456268 40.703125 23.150391 C 40.9514 22.997452 41.22179 22.80769 41.494141 22.458984 C 41.766491 22.110279 42.031406 21.521365 41.998047 20.894531 C 41.933147 19.675092 41.132315 19.127174 40.646484 18.835938 C 40.160654 18.5447 39.696748 18.380428 39.167969 18.21875 C 38.110411 17.895395 36.802384 17.638039 35.253906 17.386719 C 32.908996 17.006136 29.837413 16.665035 26.849609 16.316406 C 29.865052 16.143961 32.960485 15.984167 35.365234 15.537109 C 36.959756 15.240678 38.331064 14.888237 39.496094 14.324219 C 40.078609 14.04221 40.623835 13.707988 41.107422 13.185547 C 41.590962 12.663106 41.99966 11.857012 42 11 C 42.000861 8.8288281 40.553791 7.2793101 39.005859 6.1308594 C 38.450858 5.7190894 37.844743 5.3503562 37.222656 5 L 25.742188 5 z"/>
 <path style="fill:#f19037" d="m 25.742188,4 c 0.286771,0.067712 3.345852,0.796256 6.513671,2.0664062 1.659248,0.6652823 3.288343,1.47837 4.365235,2.2773438 0.892578,0.6622268 1.04556,1.0801184 1.142578,1.3730469 -0.0067,0.00328 -0.003,0.00256 -0.0098,0.00586 -0.585229,0.2833228 -1.715527,1.0196648 -3.121094,1.2809688 -2.811132,0.522607 -6.756763,0.823493 -10.707031,0.96875 -7.900535,0.290513 -15.8496091,-0.0078 -15.8496091,-0.0078 C 6.9609715,11.921858 6.026538,12.399923 6,13.515625 c -0.025912,1.084118 0.6617996,1.821186 1.15625,2.1875 0.4944504,0.366314 0.9738721,0.5688 1.5097656,0.763672 1.071787,0.389743 2.3769034,0.684916 3.9238284,0.96875 3.093849,0.567668 7.10229,1.044944 11.103515,1.509765 3.050847,0.354418 5.753997,0.705663 8.326172,1.060547 -2.622037,0.366979 -5.386805,0.727805 -8.501953,1.13086 -4.072667,0.526944 -8.139361,1.104843 -11.27539,1.857422 -1.568016,0.376289 -2.8935114,0.774233 -4.0019536,1.355468 -0.5542212,0.290618 -1.0743856,0.621095 -1.5371094,1.175782 -0.4293715,0.514705 -0.7329398,1.364989 -0.6582031,2.191406 0.058963,0.963403 0.5490633,1.538828 0.9472656,1.908203 0.4269404,0.396033 0.8766863,0.681915 1.3945313,0.96875 1.0356897,0.573671 2.3430112,1.115118 3.8925782,1.669922 1.106728,0.396251 2.692669,0.728679 3.996094,1.117187 -1.314838,0.472103 -2.911647,0.853923 -4.03125,1.341797 -1.569788,0.684046 -2.8997683,1.359117 -3.9492191,2.060547 -0.5247254,0.350715 -0.9818022,0.701116 -1.390625,1.146485 C 6.4954741,38.375054 6.0329196,38.959569 6.0019531,39.9375 5.9492442,41.602067 6.5823263,42.962966 7.3867188,44 h 6.3437502 c -0.230021,-0.399333 -0.590836,-0.707026 -1.021485,-0.871094 0,0 -0.751512,-0.293637 -1.492187,-0.892578 -0.625052,-0.505443 -1.008846,-1.087338 -1.119141,-1.796875 0.118567,-0.101575 0.195311,-0.179953 0.419922,-0.330078 0.71475,-0.477724 1.891932,-1.09377 3.326172,-1.71875 2.495556,-1.087455 5.916279,-2.167748 9.291016,-3.089844 0.121072,0.02732 0.212843,0.06682 0.333984,0.09375 4.057634,0.902139 8.112039,1.585676 11.3125,1.777344 1.60023,0.09583 2.968455,0.08805 4.183594,-0.164063 0.607569,-0.126055 1.195951,-0.30021 1.792968,-0.722656 0.597018,-0.422446 1.192456,-1.281064 1.240235,-2.179687 0.0016,-0.03643 0.0023,-0.07291 0.002,-0.109375 -0.003,-1.645983 -1.157083,-3.159517 -2.482422,-3.820313 -1.325339,-0.660795 -2.808336,-0.850876 -4.46875,-0.882812 -3.320828,-0.06387 -7.403814,0.638926 -11.5,1.667969 -0.182619,0.04588 -0.321481,0.120782 -0.503906,0.167968 -3.433652,-0.81012 -6.898894,-1.729633 -9.416016,-2.630859 -1.014262,-0.363145 -1.661833,-0.679986 -2.339844,-0.996094 0.581543,-0.208656 1.023846,-0.410117 1.886719,-0.617187 2.815743,-0.675717 6.819719,-1.257129 10.855469,-1.779297 4.03575,-0.522168 8.109304,-0.991417 11.240234,-1.498047 1.565465,-0.253315 2.882912,-0.507696 3.94336,-0.830078 0.530224,-0.161191 0.991732,-0.321076 1.488281,-0.626953 0.248275,-0.152939 0.518665,-0.342701 0.791016,-0.691407 0.27235,-0.348705 0.537265,-0.937619 0.503906,-1.564453 -0.0649,-1.219439 -0.865732,-1.767356 -1.351563,-2.058593 -0.48583,-0.291238 -0.949736,-0.45551 -1.478515,-0.617188 -1.057558,-0.323355 -2.365585,-0.580711 -3.914063,-0.832031 -2.34491,-0.380583 -5.416493,-0.721684 -8.404297,-1.070313 3.015443,-0.172445 6.110876,-0.332239 8.515625,-0.779297 1.594522,-0.296431 2.96583,-0.648872 4.13086,-1.21289 0.582515,-0.282009 1.127741,-0.616231 1.611328,-1.138672 C 41.591009,11.663106 41.99966,10.857012 42,10 42.000861,7.8288281 40.553791,6.2793101 39.005859,5.1308594 38.450858,4.7190894 37.844743,4.3503562 37.222656,4 Z"/>
</svg>
